!!!!SEGMENT: pl-stab--15a--001-006_rodowski-aleksander--missa-in-b-agnus-dei.krn
!!!cenid: 18xx:3446
!!!COM: Rodowski, Aleksander
!!!COM-rismid: pe30009627
!!!CDT: <1790->1810
!!!CNT: Polish
!!!OPR: Missa in B
!!!OTL: Agnus Dei
!!!OMV: 006
!!!PDT: 1802
!!!AGN:
!!!SMS-siglum: PL-STAb
!!!SMS-shelfmark: 15a
!!!SMS-shelfwork: 001-006 M
!!!SMS-variant:
!!!SMS-altvar:
!!!NIFC-rismid: 301050682
!!!URL-scan: https://repozytorium.nifc.pl/islandora/object/pl-stab%3A2768/datastream/PDF/view
!!!ONB-nifc: UWAGA: części Mszy: 1. Kyrie, 2. Gloria, 3. Patrem, 4. Sanctus, 5. Benedictus, 6. Agnus Dei
!!!key: B
**kern	**kern	**dynam	**kern	**dynam	**kern	**text	**kern	**text	**kern	**kern	**kern	**kern
*part9	*part8	*part8	*part7	*part7	*part6	*part5	*part5	*part5	*part4	*part3	*part2	*part1
*staff9	*staff8	*	*staff7	*	*staff6	*staff5	*staff5	*staff5	*staff4	*staff3	*staff2	*staff1
*Iorgan	*Ivioln	*	*Ivioln	*	*Ibass	*	*Ivox	*	*Iempty	*Iempty	*Iclars	*Iclars
*I"Organo	*I"Violino Secundo	*	*I"Violino Primo	*	*I"Basso	*	*I"Canto	*	*I"Cornu Secundo	*I"Cornu Primo in B.	*I"Clarinetto Secundo	*I"Clarinetto Primo
*I'Org.	*I'Vn II	*	*I'Vn I	*	*I'B.	*	*I'C.	*	*I'C. II	*I'C. I	*I'Cl. II	*I'Cl. I
*ICklav	*ICstr	*	*ICstr	*	*ICvox	*	*ICvox	*	*ICbras	*ICbras	*ICww	*ICww
*clefF4	*clefG2	*	*clefG2	*	*clefF4	*	*clefC1	*	*clefG2	*clefG2	*clefG2	*clefG2
*	*	*	*	*	*	*	*	*	*ITrd1c2	*ITrd1c2	*ITrd1c2	*ITrd1c2
*k[b-e-]	*k[b-e-]	*	*k[b-e-]	*	*k[b-e-]	*	*k[b-e-]	*	*k[b-e-]	*k[b-e-]	*k[b-e-]	*k[b-e-]
*B-:	*B-:	*	*B-:	*	*B-:	*	*B-:	*	*B-:	*B-:	*B-:	*B-:
*M2/4	*M2/4	*	*M2/4	*	*M2/4	*	*M2/4	*	*M2/4	*M2/4	*M2/4	*M2/4
*	*	*	*	*below	*	*	*	*	*	*	*	*
=1	=1	=1	=1	=1	=1	=1	=1	=1	=1	=1	=1	=1
*tremolo	*	*	*	*	*	*	*	*	*	*	*	*
*2\right	*	*	*	*	*	*	*	*	*	*	*	*
!LO:TX:a:t=Agnus	!	!	!LO:TX:a:t=Agnus	!	!LO:TX:a:t=Adagio	!	!LO:TX:a:t=Adagio	!	!	!	!	!LO:TX:a:t=Andante
8B-\L	4d/	p	4f/	p	4d\	A-	4ff\	A-	1r	1r	1r	1r
8B-\	.	.	.	.	.	.	.	.	.	.	.	.
8B-\	4B-/	.	4d/	.	4B-\	-gnus	4dd\	-gnus	.	.	.	.
8B-\J	.	.	.	.	.	.	.	.	.	.	.	.
=2	=2	=2	=2	=2	=2	=2	=2	=2	=2	=2	=2	=2
8B-\L	16r	.	16r	.	16r	.	16r	.	.	.	.	.
.	16d/LL	.	16f/LL	.	16d\LL	De-	16ff\	De-	.	.	.	.
8B-\	16d/	.	16f/	.	16d\	-i	16ff\	-i	.	.	.	.
.	16d/JJ	.	16f/JJ	.	16d\JJ	qui	16ff\	qui	.	.	.	.
8B-\	16d/LL	.	16f/LL	.	16d\LL	tol-	16ff\	tol-	.	.	.	.
.	16B-/JJ	.	16d/JJ	.	16B-\JJ	-lis	16dd\	-lis	.	.	.	.
8B-\J	16r	.	16r	.	16r	.	16r	.	.	.	.	.
.	16d/	.	16f/	.	16d\	pec-	16ff\	pec-	.	.	.	.
*Xtremolo	*	*	*	*	*	*	*	*	*	*	*	*
=3	=3	=3	=3	=3	=3	=3	=3	=3	=3	=3	=3	=3
8B-\L	16d/LL	.	16f/LL	.	16d\LL	-ca-	16ff\	-ca-	2r	2r	2r	2r
.	16B-/JJ	.	16d/JJ	.	16B-\JJ	-ta	16dd\	-ta	.	.	.	.
8B-\	16r	.	16r	.	16r	.	16r	.	.	.	.	.
.	16d/	.	16f/	.	16d\	mun-	16ff\	pec-	.	.	.	.
8B-\	16d/LL	.	16f/LL	.	16d\LL	.	16ff\	-ca-	.	.	.	.
.	16B-/	.	16d/	.	16B-\	.	16dd\	-ta	.	.	.	.
8F\J	16A/	.	16c/	.	16A\	.	16cc\	mun-	.	.	.	.
.	16c/JJ	.	16e-/JJ	.	16c\JJ	.	16ee-\	.	.	.	.	.
=4	=4	=4	=4	=4	=4	=4	=4	=4	=4	=4	=4	=4
!	!	!	!LO:TX:a:t=P:problem:mixedbeam	!LO:DY:a	!	!	!	!	!	!	!LO:TX:a:t=P:problem:mixedbeam	!
4B-\	16B-/LL	.	16d/LL	f	8B-\	-di	8dd\	-di	4d/	4b-\	16d/LL	16b-\LL
.	16g/	.	16bb-\	.	.	.	.	.	.	.	16gg\	16bb-\
.	16f/	.	16aa\	.	8r	.	8r	.	.	.	16ff\	16aa\
.	16e-/JJ	.	16gg\JJ	.	.	.	.	.	.	.	16ee-\JJ	16gg\JJ
!	!LO:LB:g=original	!	!	!	!	!	!	!	!	!	!	!
4r	16d/LL	.	16ff\LL	.	4r	.	4r	.	4f/	4cc\	16dd\LL	16ff\LL
.	16g/	.	16ee-\	.	.	.	.	.	.	.	16cc\	16ee-\
.	16f/	.	16dd\	.	.	.	.	.	.	.	16f\	16dd\
.	16e-/JJ	.	16cc\JJ	.	.	.	.	.	.	.	16e-\JJ	16cc\JJ
=5	=5	=5	=5	=5	=5	=5	=5	=5	=5	=5	=5	=5
*tremolo	*tremolo	*	*	*	*	*	*	*	*	*	*	*
8B-\L	8d/L	.	8b-/L	.	0r	.	4.dd\	Par-	4d/	4b-\	8d/	8b-\
8B-\	8d/	.	8g/	.	.	.	.	.	.	.	8r	8r
8B-\	8d/	.	8g/	.	.	.	.	.	4r	4r	4r	4r
8B-\J	8d/J	.	8g/J	.	.	.	8een\	-ce	.	.	.	.
*	*Xtremolo	*	*	*	*	*	*	*	*	*	*	*
!	!	!	!	!	!	!	!LO:LB:g=original	!	!	!	!	!
=6	=6	=6	=6	=6	=6	=6	=6	=6	=6	=6	=6	=6
8A\L	8r	.	8r	p	.	.	16gg\LL	no-	0r	0r	0r	0r
.	.	.	.	.	.	.	16ff\	.	.	.	.	.
8A\	8c/L	.	8f/L	.	.	.	16ee-\	.	.	.	.	.
.	.	.	.	.	.	.	16ff\JJ	.	.	.	.	.
8A\	8c/	.	8f/	.	.	.	8cc\	-bis	.	.	.	.
8A\J	8c/J	.	8f/J	.	.	.	16ff\LL	par-	.	.	.	.
.	.	.	.	.	.	.	16aa\JJ	-ce	.	.	.	.
*Xtremolo	*	*	*	*	*	*	*	*	*	*	*	*
=7	=7	=7	=7	=7	=7	=7	=7	=7	=7	=7	=7	=7
8G\L	8r	.	8r	.	.	.	16gg\LL	no-	.	.	.	.
.	.	.	.	.	.	.	16ff\	.	.	.	.	.
8G\	8B-/L	.	8en/L	.	.	.	16ee-\	-bis	.	.	.	.
.	.	.	.	.	.	.	16dd\JJ	.	.	.	.	.
8En\	8B-/	.	8e/	.	.	.	16dd\LL	Do-	.	.	.	.
.	.	.	.	.	.	.	16cc\	.	.	.	.	.
8E\J	8B-/J	.	8e/J	.	.	.	16cc\	-mi-	.	.	.	.
.	.	.	.	.	.	.	16b-\JJ	.	.	.	.	.
=8	=8	=8	=8	=8	=8	=8	=8	=8	=8	=8	=8	=8
8F\L	8r	.	8r	.	.	.	4a\	-ne	.	.	.	.
8F\	8c/L	.	8f/L	.	.	.	.	.	.	.	.	.
8F\	8c/	.	8f/	.	.	.	8r	.	.	.	.	.
8A\J	8c/J	.	8f/J	.	.	.	16cc\	par-	.	.	.	.
.	.	.	.	.	.	.	16ff\	-ce	.	.	.	.
=9	=9	=9	=9	=9	=9	=9	=9	=9	=9	=9	=9	=9
8B-\L	8r	.	8r	.	1r	.	16een\LL	no-	.	.	.	.
.	.	.	.	.	.	.	16dd\JJ	.	.	.	.	.
8B-\	8d/L	.	8g/L	.	.	.	8dd\	-bis	.	.	.	.
8B-\	8d/	.	8g/	.	.	.	8r	.	.	.	.	.
8Bn\J	8d/J	.	8f/J	.	.	.	16gg\LL	Do-	.	.	.	.
.	.	.	.	.	.	.	16ff\JJ	-mi-	.	.	.	.
=10	=10	=10	=10	=10	=10	=10	=10	=10	=10	=10	=10	=10
!LO:TX:a:t=P:problem:mixedbeam	!	!LO:DY:rj	!	!LO:DY:a	!	!	!	!	!	!	!	!
8c\L	32e-/LLL	f	32en/LLL	f	.	.	8een\	-ne	0r	0r	0r	0r
.	32c/	.	32c/	.	.	.	.	.	.	.	.	.
.	32d/	.	32d/	.	.	.	.	.	.	.	.	.
.	32e-/JJJ	.	32e/JJJ	.	.	.	.	.	.	.	.	.
!	!	!	!LO:LB:g=original	!	!	!	!	!	!	!	!	!
8C/	32f/LLL	.	32f/LLL	.	.	.	8r	.	.	.	.	.
.	32g/	.	32g/	.	.	.	.	.	.	.	.	.
.	32a/	.	32a/	.	.	.	.	.	.	.	.	.
.	32b-/JJJ	.	32b-/JJJ	.	.	.	.	.	.	.	.	.
8C/J	8cc\	.	8cc\	.	.	.	4r	.	.	.	.	.
8r	8r	.	8r	.	.	.	.	.	.	.	.	.
!LO:LB:g=original	!	!	!	!	!	!	!	!	!	!	!	!
=11	=11	=11	=11	=11	=11	=11	=11	=11	=11	=11	=11	=11
!LO:TX:a:t=P:problem:mixedbeam	!	!	!	!	!LO:TX:a:t=Solo	!	!LO:TX:a:t=14	!	!	!	!	!
8C/L	8r	.	8r	.	4c\	A-	0r	.	.	.	.	.
8c\	8en/L	.	8g/L	p	.	.	.	.	.	.	.	.
8c\	8e/	.	8g/	.	16C/LL	-gnus	.	.	.	.	.	.
.	.	.	.	.	16E-/	.	.	.	.	.	.	.
8c\J	8e/J	.	8g/J	.	16G/	.	.	.	.	.	.	.
.	.	.	.	.	16B-/JJ	.	.	.	.	.	.	.
=12	=12	=12	=12	=12	=12	=12	=12	=12	=12	=12	=12	=12
8r	8r	.	8r	.	16B-\LL	de-	.	.	.	.	.	.
.	.	.	.	.	16A\J	.	.	.	.	.	.	.
8c\L	8f/L	.	8a/L	.	8A\J	-i	.	.	.	.	.	.
!	!	!	!	!	!LO:TX:a:t=P:problem:mixedbeam	!	!	!	!	!	!	!
8c\	8f/	.	8a/	.	16E-/LL	qui-	.	.	.	.	.	.
.	.	.	.	.	16e-\	.	.	.	.	.	.	.
8c\J	8f/J	.	8a/J	.	16c\	.	.	.	.	.	.	.
.	.	.	.	.	16A\JJ	.	.	.	.	.	.	.
!	!	!	!	!	!LO:LB:g=original	!	!	!	!	!	!	!
=13	=13	=13	=13	=13	=13	=13	=13	=13	=13	=13	=13	=13
8r	8r	.	8r	.	16A\LL	-tol-	.	.	.	.	.	.
.	.	.	.	.	16G\J	.	.	.	.	.	.	.
8c\L	8g/L	.	8b-\L	.	8G\J	-lis	.	.	.	.	.	.
8c\	8g/	.	8b-\	.	16r	.	.	.	.	.	.	.
.	.	.	.	.	16B-\LL	pec-	.	.	.	.	.	.
8c\J	8g/J	.	8b-\J	.	16G\	.	.	.	.	.	.	.
.	.	.	.	.	16E-\JJ	.	.	.	.	.	.	.
=14	=14	=14	=14	=14	=14	=14	=14	=14	=14	=14	=14	=14
8r	8r	.	8r	.	16G\LL	-ca-	.	.	0r	0r	0r	0r
.	.	.	.	.	16F\J	.	.	.	.	.	.	.
8F\L	8f/L	.	8a/L	.	8F\J	-ta	.	.	.	.	.	.
8F\	8f/	.	8a/	.	16r	.	.	.	.	.	.	.
*	*	*	*	*	*	*ij	*	*	*	*	*	*
.	.	.	.	.	16c\LL	qui-	.	.	.	.	.	.
8A\J	8a/J	.	8cc/J	.	16A\	.	.	.	.	.	.	.
.	.	.	.	.	16F#X\JJ	.	.	.	.	.	.	.
=15	=15	=15	=15	=15	=15	=15	=15	=15	=15	=15	=15	=15
8r	8r	.	8r	.	16A\LL	-tol-	0r	.	.	.	.	.
.	.	.	.	.	16G\J	.	.	.	.	.	.	.
8B-\L	8b-\L	.	8dd\L	.	8G\J	-lis	.	.	.	.	.	.
8B-\	8b-\	.	8dd\	.	16r	.	.	.	.	.	.	.
.	.	.	.	.	16d\LL	pec-	.	.	.	.	.	.
8Bn\J	8dd\J	.	8ff\J	.	16B-\	.	.	.	.	.	.	.
.	.	.	.	.	16G\JJ	.	.	.	.	.	.	.
!	!LO:LB:g=original	!	!	!	!	!	!	!	!	!	!	!
=16	=16	=16	=16	=16	=16	=16	=16	=16	=16	=16	=16	=16
!LO:TX:a:t=P:problem:mixedbeam	!	!	!LO:TX:a:t=P:problem:mixedbeam	!	!	!	!	!	!	!	!	!
8c\L	8a/L	f	8ff\L	f	8F\L	-ca-	.	.	.	.	.	.
8C/	16g/L	.	16ee-\L	.	8E-\J	-ta	.	.	.	.	.	.
*	*	*	*	*	*	*Xij	*	*	*	*	*	*
.	32g/L	.	32g/L	.	.	.	.	.	.	.	.	.
.	32en/JJJ	.	32en/JJJ	.	.	.	.	.	.	.	.	.
8C/J	8G/	.	8c/	.	4r	.	.	.	.	.	.	.
8r	8r	.	8r	.	.	.	.	.	.	.	.	.
=17	=17	=17	=17	=17	=17	=17	=17	=17	=17	=17	=17	=17
4C/	16r	p	16r	.	4B-\	Ex-	.	.	.	.	.	.
.	16b-\LL	.	16een\LL	p	.	.	.	.	.	.	.	.
.	16b-\	.	16ee\	.	.	.	.	.	.	.	.	.
.	16b-\JJ	.	16ee\JJ	.	.	.	.	.	.	.	.	.
4E-/	16r	.	16r	.	4G\	-au-	.	.	.	.	.	.
.	16g/LL	.	16b-\LL	.	.	.	.	.	.	.	.	.
.	16g/	.	16b-\	.	.	.	.	.	.	.	.	.
.	16g/JJ	.	16b-\JJ	.	.	.	.	.	.	.	.	.
=18	=18	=18	=18	=18	=18	=18	=18	=18	=18	=18	=18	=18
4F\	16r	.	16r	.	4A\	-di	.	.	1r	1r	0r	0r
.	16a/LL	.	16ff\LL	.	.	.	.	.	.	.	.	.
.	16a/	.	16ff\	.	.	.	.	.	.	.	.	.
.	16a/JJ	.	16ff\JJ	.	.	.	.	.	.	.	.	.
4A\	16r	.	16r	.	4F\	nos	.	.	.	.	.	.
.	16a/LL	.	16cc\LL	.	.	.	.	.	.	.	.	.
.	16a/	.	16cc\	.	.	.	.	.	.	.	.	.
.	16a/JJ	.	16cc\JJ	.	.	.	.	.	.	.	.	.
=19	=19	=19	=19	=19	=19	=19	=19	=19	=19	=19	=19	=19
4B-\	16r	.	16r	.	4G\	Do-	0r	.	.	.	.	.
.	16b-/LL	.	16dd\LL	.	.	.	.	.	.	.	.	.
.	16b-/	.	16dd\	.	.	.	.	.	.	.	.	.
.	16b-/JJ	.	16dd\JJ	.	.	.	.	.	.	.	.	.
4c\	16r	.	16r	.	4En\	-mi-	.	.	.	.	.	.
.	16g/LL	.	16b-\LL	.	.	.	.	.	.	.	.	.
.	16g/	.	16b-\	.	.	.	.	.	.	.	.	.
.	16g/JJ	.	16b-\JJ	.	.	.	.	.	.	.	.	.
!	!	!	!LO:LB:g=original	!	!	!	!	!	!	!	!	!
=20	=20	=20	=20	=20	=20	=20	=20	=20	=20	=20	=20	=20
4F\	32a/LLL	f	32a/LLL	f	4F\	-ne	.	.	2r	2r	.	.
.	32f/	.	32f/	.	.	.	.	.	.	.	.	.
.	32g/	.	32g/	.	.	.	.	.	.	.	.	.
.	32a/JJJ	.	32a/JJJ	.	.	.	.	.	.	.	.	.
.	32b-\LLL	.	32b-/LLL	.	.	.	.	.	.	.	.	.
.	32cc\	.	32cc/	.	.	.	.	.	.	.	.	.
.	32dd\	.	32dd/	.	.	.	.	.	.	.	.	.
.	32een\JJJ	.	32een/JJJ	.	.	.	.	.	.	.	.	.
4r	16ff\LL	.	16ff\LL	.	4r	.	.	.	.	.	.	.
.	16cc\	.	16cc\	.	.	.	.	.	.	.	.	.
.	16a\	.	16a\	.	.	.	.	.	.	.	.	.
.	16f\JJ	.	16f\JJ	.	.	.	.	.	.	.	.	.
=21	=21	=21	=21	=21	=21	=21	=21	=21	=21	=21	=21	=21
4C/	16r	.	16r	.	4B-\	Ex-	.	.	4d/	4b-\	.	.
.	16b-\LL	.	16een\LL	.	.	.	.	.	.	.	.	.
.	16b-\	.	16ee\	.	.	.	.	.	.	.	.	.
.	16b-\JJ	.	16ee\JJ	.	.	.	.	.	.	.	.	.
4E-/	16r	.	16r	.	4G\	-au-	.	.	4d/	4b-\	.	.
.	16g/LL	.	16b-\LL	.	.	.	.	.	.	.	.	.
.	16g/	.	16b-\	.	.	.	.	.	.	.	.	.
.	16g/JJ	.	16b-\JJ	.	.	.	.	.	.	.	.	.
!LO:LB:g=original	!	!	!	!	!LO:LB:g=original	!	!	!	!	!	!	!
=22	=22	=22	=22	=22	=22	=22	=22	=22	=22	=22	=22	=22
4F\	16r	.	16r	.	4A\	-di	.	.	4f/	4cc\	0r	0r
.	16a/LL	.	16ff\LL	.	.	.	.	.	.	.	.	.
.	16a/	.	16ff\	.	.	.	.	.	.	.	.	.
.	16a/JJ	.	16ff\JJ	.	.	.	.	.	.	.	.	.
4A\	16r	.	16r	.	4F\	nos	.	.	4cc\	4ee-\	.	.
.	16a/LL	.	16cc\LL	.	.	.	.	.	.	.	.	.
.	16a/	.	16cc\	.	.	.	.	.	.	.	.	.
.	16a/JJ	.	16cc\JJ	.	.	.	.	.	.	.	.	.
!	!LO:LB:g=original	!	!	!	!	!	!	!	!	!	!	!
=23	=23	=23	=23	=23	=23	=23	=23	=23	=23	=23	=23	=23
4B-\	16r	.	16r	.	4G\	Do-	1r	.	4d/	4b-\	.	.
.	16b-\LL	.	16dd\LL	.	.	.	.	.	.	.	.	.
.	16b-\	.	16dd\	.	.	.	.	.	.	.	.	.
.	16b-\JJ	.	16dd\JJ	.	.	.	.	.	.	.	.	.
4c\	16r	.	16r	.	4En\	-mi-	.	.	4b-\	4dd\	.	.
.	16g/LL	.	16b-\LL	.	.	.	.	.	.	.	.	.
.	16g/	.	16b-\	.	.	.	.	.	.	.	.	.
.	16g/JJ	.	16b-\JJ	.	.	.	.	.	.	.	.	.
=24	=24	=24	=24	=24	=24	=24	=24	=24	=24	=24	=24	=24
!	!	!	!LO:TX:a:t=P:problem:mixedbeam	!	!	!	!	!	!	!	!	!
4F\	8a\L	.	8a/L	.	4F\	-ne	.	.	4f/	4cc\	.	.
.	8a\	.	8ff\	.	.	.	.	.	.	.	.	.
4r	8b-\	.	8een\	.	4r	.	.	.	4f/	4cc\	.	.
.	8cc\J	.	8ee-X\J	.	.	.	.	.	.	.	.	.
=25	=25	=25	=25	=25	=25	=25	=25	=25	=25	=25	=25	=25
*tremolo	*	*	*	*	*	*	*	*	*	*	*	*
8B-\L	4b-/	.	4dd\	.	4d\	A-	4ff\	A-	4d/	4b-\	.	.
8B-\	.	.	.	.	.	.	.	.	.	.	.	.
8B-\	4B-/	.	4d/	.	4B-\	-gnus	4dd\	-gnus	4r	4r	.	.
8B-\J	.	.	.	.	.	.	.	.	.	.	.	.
=26	=26	=26	=26	=26	=26	=26	=26	=26	=26	=26	=26	=26
!	!	!	!	!	!	!	!	!	!LO:TX:a:t=3	!LO:TX:a:t=3	!	!
8B-\L	16r	.	16r	.	16r	.	16r	.	2r	2r	1r	1r
.	16d/LL	.	16f/LL	.	16d\LL	De-	16ff\	De-	.	.	.	.
8B-\	16d/	.	16f/	.	16d\	-i	16ff\	-i	.	.	.	.
.	16d/JJ	.	16f/JJ	.	16d\JJ	qui	16ff\	qui	.	.	.	.
!	!	!	!	!	!	!	!LO:LB:g=original	!	!	!	!	!
8B-\	16d/LL	.	16f/LL	.	16d\LL	tol-	16ff\	tol-	.	.	.	.
.	16B-/JJ	.	16d/JJ	.	16B-\JJ	-lis	16dd\	-lis	.	.	.	.
8B-\J	16r	.	16r	.	16r	.	16r	.	.	.	.	.
.	16d/	.	16f/	.	16d\	pec-	16ff\	pec-	.	.	.	.
*Xtremolo	*	*	*	*	*	*	*	*	*	*	*	*
=27	=27	=27	=27	=27	=27	=27	=27	=27	=27	=27	=27	=27
8B-\L	16d/LL	.	16f/LL	.	16d\LL	-ca-	16ff\	-ca-	2r	2r	.	.
.	16B-/JJ	.	16d/JJ	.	16B-\JJ	-ta	16dd\	-ta	.	.	.	.
8B-\	16r	.	16r	.	16r	.	16r	.	.	.	.	.
.	16d/	.	16f/	.	16d\	mun-	16ff\	pec-	.	.	.	.
8B-\	16d/LL	.	16f/LL	.	16d\LL	.	16ff\	-ca-	.	.	.	.
.	16B-/	.	16d/	.	16B-\	.	16dd\	-ta	.	.	.	.
8F\J	16A/	.	16c/	.	16.A\	.	(16.cc\	mun-	.	.	.	.
.	16c/JJ	.	16e-/JJ	.	.	.	.	.	.	.	.	.
.	.	.	.	.	32c\JJk	.	32ee-\)	.	.	.	.	.
!	!	!	!LO:LB:g=original	!	!	!	!	!	!	!	!	!
=28	=28	=28	=28	=28	=28	=28	=28	=28	=28	=28	=28	=28
8B-\L	16b-\LL	.	16b-\LL	.	8B-\	-di	8dd\	-di	2r	2r	16b-\LL	16b-\LL
.	16gg\	.	16bb-\	.	.	.	.	.	.	.	16gg\	16bb-\
8B-\	16ff\	.	16aa\	.	8r	.	8r	.	.	.	16ff\	16aa\
.	16ee-\JJ	.	16gg\JJ	.	.	.	.	.	.	.	16ee-\JJ	16gg\JJ
!	!LO:TX:a:t=P:problem:mixedbeam	!	!	!	!	!	!	!	!	!	!	!
8B-\J	16dd\LL	.	16ff\LL	.	4r	.	4r	.	.	.	16dd\LL	16ff\LL
.	16f/	.	16dd\	.	.	.	.	.	.	.	16f\	16dd\
8r	16e-/	.	16cc\	.	.	.	.	.	.	.	16e-\	16cc\
.	16d/JJ	.	16b-\JJ	.	.	.	.	.	.	.	16d\JJ	16b-\JJ
=29	=29	=29	=29	=29	=29	=29	=29	=29	=29	=29	=29	=29
8F\L	16cc\LL	.	16ee-\LL	.	4c\	Mi-	4ee-\	Mi-	4f/	4cc\	4cc\	4ee-\
.	16dd\	.	16ff\	.	.	.	.	.	.	.	.	.
8F\	16ee-\	.	16gg\	.	.	.	.	.	.	.	.	.
.	16ee-\JJ	.	16gg\JJ	.	.	.	.	.	.	.	.	.
8A\	16ee-\LL	.	16gg\LL	.	4A\	-se-	4cc\	-se-	4cc\	4ee-\	4a\	4cc\
.	16cc\	.	16ee-\	.	.	.	.	.	.	.	.	.
8A\J	16b-\	.	16dd\	.	.	.	.	.	.	.	.	.
.	16a\JJ	.	16cc\JJ	.	.	.	.	.	.	.	.	.
=30	=30	=30	=30	=30	=30	=30	=30	=30	=30	=30	=30	=30
!LO:TX:a:t=P:problem:mixedbeam	!	!	!	!	!	!	!	!	!	!	!	!
8B-\L	16b-\LL	.	16dd\LL	.	4B-\	-re-	4dd\	-re-	4d/	4b-\	4b-\	4dd\
.	16cc\	.	16ee-\	.	.	.	.	.	.	.	.	.
8B-\	16dd\	.	16ff\	.	.	.	.	.	.	.	.	.
.	16dd\JJ	.	16ff\JJ	.	.	.	.	.	.	.	.	.
8D\	16dd/LL	.	16ff\LL	.	4D/	-re	4b-\	-re	4b-\	4dd\	4d/	4b-\
.	16f/	.	16dd\	.	.	.	.	.	.	.	.	.
8D\J	16e-/	.	16cc\	.	.	.	.	.	.	.	.	.
.	16d/JJ	.	16b-\JJ	.	.	.	.	.	.	.	.	.
!	!	!	!	!	!LO:LB:g=original	!	!	!	!	!	!	!
=31	=31	=31	=31	=31	=31	=31	=31	=31	=31	=31	=31	=31
8E-\L	16e-/LL	.	16cc\LL	.	4E-\	no-	(4cc\	no-	4f/	4cc\	4e-/	4cc\
.	16f/	.	16dd\	.	.	.	.	.	.	.	.	.
8E-\	16g/	.	16ee-\	.	.	.	.	.	.	.	.	.
.	16e-/JJ	.	16cc\JJ	.	.	.	.	.	.	.	.	.
8F\	16e-/LL	.	16cc\LL	.	4F\	.	4a\)	.	4f/	4cc\	4f/	4a\
.	16d/	.	16b-\	.	.	.	.	.	.	.	.	.
8F\J	16d/	.	16b-\	.	.	.	.	.	.	.	.	.
.	16c/JJ	.	16a\JJ	.	.	.	.	.	.	.	.	.
!	!LO:LB:g=original	!	!	!	!	!	!	!	!	!	!LO:LB:g=original	!
=32	=32	=32	=32	=32	=32	=32	=32	=32	=32	=32	=32	=32
4B-\	16d/LL	.	16b-\LL	.	4B-\	-bis	4b-\	-bis	2r	2r	4d/	4b-\
.	16a/	.	16cc\	.	.	.	.	.	.	.	.	.
.	16b-/	.	16dd\	.	.	.	.	.	.	.	.	.
.	16cc/JJ	.	16ee-\JJ	.	.	.	.	.	.	.	.	.
4r	16dd\LL	.	16ff\LL	.	4r	.	4r	.	.	.	4r	4r
.	16ee-\	.	16gg\	.	.	.	.	.	.	.	.	.
.	16cc\	.	16aa\	.	.	.	.	.	.	.	.	.
.	16dd\JJ	.	16bb-\JJ	.	.	.	.	.	.	.	.	.
!	!	!	!	!	!	!	!	!	!	!	!	!LO:LB:g=original
=33	=33	=33	=33	=33	=33	=33	=33	=33	=33	=33	=33	=33
8F\L	16cc\LL	.	16ee-\LL	.	4c\	Mi-	4ee-\	Mi-	4f/	4cc\	4cc\	4ee-\
.	16dd\	.	16ff\	.	.	.	.	.	.	.	.	.
8F\	16ee-\	.	16gg\	.	.	.	.	.	.	.	.	.
.	16ee-\JJ	.	16gg\JJ	.	.	.	.	.	.	.	.	.
8A\	16ee-\LL	.	16gg\LL	.	4A\	-se-	4cc\	-se-	4cc\	4ee-\	4a\	4cc\
.	16cc\	.	16ee-\	.	.	.	.	.	.	.	.	.
8A\J	16b-\	.	16dd\	.	.	.	.	.	.	.	.	.
.	16a\JJ	.	16cc\JJ	.	.	.	.	.	.	.	.	.
!LO:LB:g=original	!	!	!	!	!	!	!	!	!	!	!	!
=34	=34	=34	=34	=34	=34	=34	=34	=34	=34	=34	=34	=34
8B-\L	16b-\LL	.	16dd\LL	.	4B-\	-re-	4dd\	-re-	4d/	4b-\	4b-\	4dd\
.	16cc\	.	16ee-\	.	.	.	.	.	.	.	.	.
8B-\	16dd\	.	16ff\	.	.	.	.	.	.	.	.	.
.	16dd\JJ	.	16ff\JJ	.	.	.	.	.	.	.	.	.
8D\	16dd/LL	.	16ff\LL	.	4D/	-re	4b-\	-re	4b-\	4dd\	4d/	4b-\
.	16f/	.	16dd\	.	.	.	.	.	.	.	.	.
8D\J	16e-/	.	16cc\	.	.	.	.	.	.	.	.	.
.	16d/JJ	.	16b-\JJ	.	.	.	.	.	.	.	.	.
!	!	!	!	!	!	!	!LO:LB:g=original	!	!	!	!	!
=35	=35	=35	=35	=35	=35	=35	=35	=35	=35	=35	=35	=35
8E-\L	16e-/LL	.	16cc\LL	.	4E-\	no-	(4cc\	no-	4f/	4cc\	4e-/	4cc\
.	16f/	.	16dd\	.	.	.	.	.	.	.	.	.
8E-\	16g/	.	16ee-\	.	.	.	.	.	.	.	.	.
.	16e-/JJ	.	16cc\JJ	.	.	.	.	.	.	.	.	.
8F\	16e-/LL	.	16cc\LL	.	4F\	.	4a\)	.	4f/	4cc\	4f/	4a\
.	16d/	.	16b-\	.	.	.	.	.	.	.	.	.
8F\J	16d/	.	16b-\	.	.	.	.	.	.	.	.	.
.	16c/JJ	.	16a\JJ	.	.	.	.	.	.	.	.	.
!	!	!	!LO:LB:g=original	!	!	!	!	!	!LO:LB:g=original	!LO:LB:g=original	!	!
=36	=36	=36	=36	=36	=36	=36	=36	=36	=36	=36	=36	=36
!	!	!	!	!	!	!	!	!	!	!	!LO:TX:a:t=P:problem:mixedbeam	!
4B-\	8d/	.	8b-/ 8d/	.	8B-\	-bis	8b-\	-bis	8b-\L	8cc\L	8d/L	8b-\L
.	8r	.	8r	.	16B-\	mi-	16dd\	mi-	8dd\	8dd\	8b-\	8dd\
.	.	.	.	.	16B-\	-se-	16dd\	-se-	.	.	.	.
4r	4r	.	4r	.	8B-\	-re-	8dd\	-re-	8dd\	8dd\	8b-\	8dd\
.	.	.	.	.	8B-\	-re	8dd\	-re	8dd\J	8dd\J	8b-\J	8dd\J
=37	=37	=37	=37	=37	=37	=37	=37	=37	=37	=37	=37	=37
*tremolo	*	*	*	*	*2\right	*	*2\right	*	*	*	*	*
8BB-/L	8r	.	8bb-\L 8dd\	.	2A\	no-	2een\	no-	4r	4r	8b-\L	8dd\L
8BB-/	8cc\L	.	8een\ 8b-\	.	.	.	.	.	.	.	8g\	8eeX\
8BB-/	8cc\	.	8ee\ 8b-\	.	.	.	.	.	4cc\	4cc\	8g\	8ee\
8BB-/J	8cc\J	.	8ee\J 8b-\	.	.	.	.	.	.	.	8g\J	8ee\J
*Xtremolo	*	*	*	*	*	*	*	*	*	*	*	*
=38	=38	=38	=38	=38	=38	=38	=38	=38	=38	=38	=38	=38
*	*	*	*2\right	*	*	*	*	*	*	*2\right	*2\right	*2\right
!	!	!	!LO:TX:a:t=Dona Nobis ut Kyrie	!	!	!	!	!	!	!	!	!
!LO:TX:a:t=Dona ut Kyrie	!LO:TX:a:t=Dona Ut Kyrie	!	!	!	!LO:TX:a:t=Dona ut Kyrie.	!	!LO:TX:a:t=Dona nobis ut Kirye.	!	!LO:TX:a:t=Dona nobis ut Kyrie	!LO:TX:a:t=Dona Nobis ut Kirye	!LO:TX:a:t=Dona ut Kyrie	!LO:TX:a:t=Dona nobis ut Kirye
2A\ 2F;\	2a/ 2f/	.	2ff\ 2a;\	.	2A;\	-bis	2ff;\	-bis	2f;/	2cc;\	2a\	2ff;\
==	==	==	==	==	==	==	==	==	==	==	==	==
*-	*-	*-	*-	*-	*-	*-	*-	*-	*-	*-	*-	*-
!!!system-decoration: [(s1,s2)][(s3,s4)][(s5,s6)][(s7,s8)]s9
!!!RDF**kern: > = above
!!!RDF**kern: < = below
!!!RDF**dynam: p = p.
!!!RDF**dynam: f = f.
!!!ENC: Berenika Jozajtis
!!!END: 2021-11-20
!!!ENC: Leszek Kubiak
!!!END: 2021-12-01
